X: 31397
T: Paddy On The Railway
R: reel
M: 4/4
K: Dmajor
d3A BAFE|DEFB BAA2|ABde fged|cded effe|
d3A BAFE|DEFB BAA2|ABde faec|dBAF DEFA:|
a3e fgfe|dcdB BAA2|ABde fged|cded efge|
a3e fgfe|dcdB BAA2|ABde faec|dBAF DEFA:|

